T: Mike's Ride
M: 4/4
L: 1/8
K: Dmaj
|f3e fedB|A2 dA B2 AG|A2 dA B2 AG|F2 AF GFED|
f3e fedB|A2 dA B2 AG|A2 dB ABdf|afeg fd d2:||
|a3f  df a2|afaf gfed |a3f afdf |gfed B2 A2|
a3f df a2|afaf gfed|afbf afed|1B3A Bcdf:|2B3A Bc d2||
|f3e fedB|A2 dA B2 AG|FD D2 AD D2|F2 AF GFED|
f3e fedB|A2 dA B2 AG|A2 dB ABdf|afeg fd d2:||
|a3f  df a2|af gfed |abaf dfaf |gfed Bcdf |
a3f df a2|af gfed|afbf afed|1B3A Bcdf:|2B3A Bc d2||
